X:1
T:129 - Bendita Luz
T:Letra: Eliza Edmunds Hewitt (1851-1920)
T:Trad.: Salomão Luiz Ginsburg (1867-1927)
T:Música: John Robson Sweney (1837-1899)
L:1/16
Q:1/4=110
M:4/4
K:Ab
V:1
A3B |"Ab"c4 E4 "Db"F3G A3B | "Ab"c12 c2>d2 | "Eb7"c4 B4 E4 B4 | "Ab"A4-A4z4 A3B |c4 E4 "Db"F3G A3B | "Ab"c12 c3c | "Eb"B6 B2 "Bb7"c4 =d4 | "Eb"e4-e4z4 || "Eb7"e3d | "Ab"c8 A4 (3"Db"B2-A2F2 | "Ab"E8 C4 C3D | E4 A4 c3e d3c | "Eb"B12 "Eb7"e2>d2 | "Ab"c4 c4 d6 c2 | "Db"c2-B2 (A2F2) "Ab"E4 A2B2 | "Ab/Eb"c6 c2 "Eb7"B4 B4 | "Ab"A8z4 |]
w: 1.~Que ben-di-ta, que glo-rio-sa luz! É mais be-la quea do di-a! I-lu-mi-naas al-mas a se-guir Cris-to,o Mes-tre,oe-ter-no Gui-a. Luz ben-di-ta, luz_ glo-rio-sa, Con-ce-di-da lá dos al-tos céus Só ao cren-teem Cris-to,o Re_den_tor. Ó ben-di-ta luz de Deus!
w: 2.~Sem-pre can-ta,a-le-gre, seu lou-vor, Quem pos-sui a luz dos céus;_ Go-zaa-fá-vel e ce-les-te paz, Dom gra-cio-so só de Deus.
w: 3.~Vi-da no-vaem san-ta re-ti-dão Têm os cren-tes em Je-sus;_ Quem de per-toao Sal-va-dor se-guir DE-leal-can-ça gra-çae luz.  
w: 4.~Es-pe-ran-ça, vi-dae sal-va-ção Hás de ter, ó pe-ca-dor,_ A-cei-tan-do Cris-to, nos-sa luz, Es-te dom do Deus dea-mor!
W:
W:  
W: 1. Que bendita, que gloriosa luz!
W: É mais bela que a do dia!
W: Ilumina as almas a seguir
W: Cristo, o Mestre, o eterno Guia.
W: 
W: 2. Sempre canta, alegre, seu louvor,
W: Quem possui a luz dos céus;
W: Goza afável e celeste paz,
W: Dom gracioso só de Deus.
W: 
W: 3. Vida nova em santa retidão
W: Têm os crentes em Jesus;
W: Quem de perto ao Salvador seguir
W: DEle alcança graça e luz.
W: 
W: 
W: 
W: 4. Esperança, vida e salvação
W: Hás de ter, ó pecador,
W: Aceitando Cristo, nossa luz,
W: Este dom do Deus de amor!
W: 
W:    (Estribilho)
W:    Luz bendita, luz gloriosa,
W:    Concedida lá dos altos céus
W:    Só ao crente em Cristo, o Redentor.
W:    Ó bendita luz de Deus!
W:         
W: 				         
W:           





